!!!ONB: MCCC : ILB0326_03 : Extracted Monophonic Melody
!!!COM: Beethoven, Ludwig van
!!!OPR: Violin Sonata No.5 in F major
!!!OMV: 3
!!!SCT: Op.24
!!!ODT: 1800///
**kern
*staff1
=1
*clefG2
*k[b-]
*F:
*M3/4
16a
16b-
8cc
4r
16r
16cc
8cc
=2
8r
8dd
8r
8cc
4r
=3
8r
8b-
8r
8a
4r
=4
8r
8g
8r
8f
4r
=5
16a
16b-
8cc
4r
16r
16cc
8cc
=6
8r
8ff
8r
8ee
4r
=7
8r
8dd
8r
8cc
4r
=8
8r
8b
8r
8cc
4r
=9
16aa
16bb-
8ccc
4r
16r
16ccc
8ccc
=10
4r
8r
8ddd
8r
8ccc
=11
4r
8r
8bb-
8r
8aa
=12
4r
8r
8gg
8r
8ff
=13
16aa
16bb-
8ccc
4r
16r
16ccc
8ccc
=14
4r
8r
8fff
8r
8eee
=15
4r
8r
8ddd
8r
8ccc
=16
4r
8r
8bb
8r
8ccc
=17
2.r
=18
4r
8a
8cc#
8ee
8aa
=19
4ccc#
4eee
4r
=20
4r
8a
8cc#
8ee
8aa
=21
8bb-
8ccc
4r
16r
16ccc
8ccc
=22
4r
8r
8ddd
8r
8ccc
=23
4r
8r
8bb-
8r
8aa
=24
4r
8r
8gg
8r
8ff
=25
2.r
=26
4r
8a
8cc#
8ee
8aa
=27
4ccc#
4eee
4r
=28
4r
8a
8cc#
8ee
8aa
=29
8bb-
8ccc
4r
16r
16ccc
8ccc
=30
4r
8r
8ddd
8r
8ccc
=31
4r
8r
8bb-
8r
8aa
=32
4r
8r
8gg
8r
8ff
=33
4r
8r
8gg
8r
8ff
=34
4r
2gg
=35
4r
2ff
=36
8r
8G
8A
8B-
8G
8A
=37
8B-
8c
8d
8e
8f
8g
=38
8a
8b-
8cc
8dd
8ee
8ff
=39
8gg
8aa
8bb-
8ccc
8ddd
8eee
=40
8fff
8ggg
8fff
8eee
8ddd
8ccc
=41
8bb-
8aa
8gg
8ff
8ee
8dd
=42
8cc
8b
8dd
8ff
8dd
8b
=43
8dd
8cc
8r
8cc
4r
=44
8r
8G
8A
8B-
8G
8A
=45
8B-
8c
8d
8e
8f
8g
=46
8a
8b-
8cc
8dd
8ee
8ff
=47
8gg
8aa
8bb-
8ccc
8ddd
8eee
=48
8fff
8ggg
8fff
8eee
8ddd
8ccc
=49
8bb-
8aa
8gg
8ff
8ee
8dd
=50
8cc
8b
8dd
8ff
8dd
8b
=51
8dd
8cc
8r
8cc
4r
=52
2.eee-
=53
4eee-
2ddd
=54
4ddd
2ccc
=55
4ccc
4bb-
4r
=56
8r
8d
8e
8f#
8d
8e
=57
8f#
8g
8b-
8cc
8dd
8ee
=58
8ff
8gg
8aa
8bb-
8ccc
8ddd
=59
8eee
8fff
8r
8fff
4r
=60
2.eee-
=61
4eee-
2ddd
=62
4ddd
2ccc
=63
4ccc
4bb-
4r
=64
8r
8d
8e
8f#
8d
8e
=65
8f#
8g
8b-
8cc
8dd
8ee
=66
8ff
8gg
8aa
8bb-
8ccc
8ddd
=67
8eee
8fff
8r
8fff
4r
=68
2.r
=69
16a
16b-
8cc
4r
16r
16cc
8cc
=70
8r
8dd
8r
8cc
4r
=71
8r
8b-
8r
8a
4r
=72
8r
8g
8r
8f
4r
=73
16a
16b-
8cc
4r
16r
16cc
8cc
=74
8r
8ff
8r
8ee
4r
=75
8r
8dd
8r
8cc
4r
=76
8r
8b
8r
8cc
4r
=77
16aa
16bb-
8ccc
4r
16r
16ccc
8ccc
=78
4r
8r
8ddd
8r
8ccc
=79
4r
8r
8bb-
8r
8aa
=80
4r
8r
8gg
8r
8ff
=81
16aa
16bb-
8ccc
4r
16r
16ccc
8ccc
=82
4r
8r
8fff
8r
8eee
=83
4r
8r
8ddd
8r
8ccc
=84
4r
8r
8bb
8r
8ccc
=85
2.r
=86
4r
8a
8cc#
8ee
8aa
=87
4ccc#
4eee
4r
=88
4r
8a
8cc#
8ee
8aa
=89
8bb-
8ccc
4r
16r
16ccc
8ccc
=90
4r
8r
8ddd
8r
8ccc
=91
4r
8r
8bb-
8r
8aa
=92
4r
8r
8gg
8r
8ff
=93
2.r
=94
4r
8a
8cc#
8ee
8aa
=95
4ccc#
4eee
4r
=96
4r
8a
8cc#
8ee
8aa
=97
8bb-
8ccc
4r
16r
16ccc
8ccc
=98
4r
8r
8ddd
8r
8ccc
=99
4r
8r
8bb-
8r
8aa
=100
4r
8r
8gg
8r
8ff
=101
4r
8r
8gg
8r
8ff
=102
4r
2gg
=103
4r
2ff
=104
16r
32r
64r
64ff
8r
4r
4r
==
*-
